icons/svg/jeepney.svg

﻿<?xml version="1.0" encoding="utf-8"?>
<!DOCTYPE svg PUBLIC "-//W3C//DTD SVG 1.1//EN" "http://www.w3.org/Graphics/SVG/1.1/DTD/svg11.dtd">
<svg xmlns="http://www.w3.org/2000/svg" xmlns:xlink="http://www.w3.org/1999/xlink" version="1.1" baseProfile="full" width="24" height="24" viewBox="0 0 24.00 24.00" enable-background="new 0 0 24.00 24.00" xml:space="preserve">
	<path fill="#000000" fill-opacity="1" stroke-width="1.33333" stroke-linejoin="miter" d="M 19,13L 19,7L 20,7L 20,4L 4,4L 4,7L 5,7L 5,13L 2,13C 2,13.9306 2.5,14.7051 3.5,14.9287L 3.5,20C 3.5,20.5508 3.948,21 4.5,21L 5.5,21C 6.052,21 6.5,20.5508 6.5,20L 6.5,19L 17.5,19L 17.5,20C 17.5,20.5508 17.9473,21 18.5,21L 19.5,21C 20.0508,21 20.5,20.5508 20.5,20L 20.5,14.9287C 21.5,14.7046 22,13.9297 22,13L 19,13 Z M 8,14.9995C 7.1704,14.9995 6.5,14.3281 6.5,13.499C 6.5,12.6714 7.1704,11.9995 8,11.9995C 8.8291,11.9995 9.5,12.6709 9.5,13.499C 9.5,14.3281 8.8291,14.9995 8,14.9995 Z M 16,14.9995C 15.1728,14.9995 14.5,14.3281 14.5,13.499C 14.5,12.6714 15.1728,11.9995 16,11.9995C 16.8291,11.9995 17.5,12.6709 17.5,13.499C 17.5,14.3281 16.8281,14.9995 16,14.9995 Z M 17.5,10.4946C 15.9219,10.1806 14.0302,9.9995 12,9.9995C 9.96705,9.9995 8,10.1836 6.5,10.4946L 6.5,7L 17.5,7L 17.5,10.4946 Z "/>
</svg>

<svg xmlns="http://www.w3.org/2000/svg" version="1.1" baseProfile="full" width="24" height="24" viewBox="0 0 24.00 24.00" xml:space="preserve"><path fill="#000" fill-opacity="1" stroke-width="1.333" stroke-linejoin="miter" d="M19 13V7h1V4H4v3h1v6H2c0 .93.5 1.705 1.5 1.93V20c0 .55.448 1 1 1h1c.552 0 1-.45 1-1v-1h11v1c0 .55.447 1 1 1h1c.55 0 1-.45 1-1v-5.07c1-.225 1.5-1 1.5-1.93h-3zM8 15c-.83 0-1.5-.672-1.5-1.5 0-.83.67-1.5 1.5-1.5s1.5.67 1.5 1.5c0 .828-.67 1.5-1.5 1.5zm8 0c-.827 0-1.5-.672-1.5-1.5 0-.83.673-1.5 1.5-1.5.83 0 1.5.67 1.5 1.5 0 .828-.672 1.5-1.5 1.5zm1.5-4.505C15.922 10.18 14.03 10 12 10c-2.033 0-4 .184-5.5.495V7h11v3.495z"/></svg>
